X:1
T:Title
%%score ( 1 2 ) { 3 | 4 }
L:1/8
Q:1/4=110
M:4/4
K:D
V:1 treble nm="Grand Piano, Soprano"
V:2 treble 
V:3 bass nm="Choir Pad, Linby, 76.76"
V:4 bass 
V:1
 A2 d2- d/ z/ A F2 | B2 A4 D2 | E[^DF] [EG]2 [DF]2 E2 | D2 [CA]4 z2 | z4 d2 z2 | [GB]2 A4 [DF]2 | %6
w: By~John~Adcock,~1874 * * * *||||||
 D2 [DE]2 [DG]2 [CF]2 | [CE]2 D6- | D2 z2 z4 |] %9
w: |||
V:2
 x8 | x8 | x8 | x8 | [DA]2 [DB]2 DE [Fc]2 | x8 | x8 | x8 | x8 |] %9
V:3
 A,2 D2- D/ z/ A, F,2 | B,2 A,4 D,2 | B,2 B,2 B,2 B,2 | B,2 A,4 z2 | D2 D2 D2 D2 | %5
 C2 C4[K:bass] A,2 | B,2 B,2 B,2 A,2 | G,2 F,6- | F,2 z2 z4 |] %9
V:4
 z8 | z8 | G,F, E,2 F,2 G,2 | ^G,2 z2 z4 | F,2 G,2 B,2 A,2 | G,2 F,4 D,2 | %6
 B,,2 [G,,G,]2 [E,,E,]2 E,2 | A,,2 D,6- | D,2 z2 z4 |] %9

